symbols/web/flip_camera_ios/materialsymbolsrounded/flip_camera_ios_20px.svg

<svg xmlns="http://www.w3.org/2000/svg" height="20" width="20"><path d="M12.833 11.208q-.145 1.063-.948 1.761-.802.698-1.885.698-.146 0-.302-.021t-.323-.063q-.187-.062-.375-.031t-.312.156q-.271.271-.209.625.063.355.417.459.292.083.573.125.281.041.573.041 1.625 0 2.791-1.093 1.167-1.094 1.271-2.698l.125.125q.188.187.459.177.27-.011.458-.198.187-.188.187-.459 0-.27-.187-.458l-1.021-1.021q-.271-.271-.625-.271t-.625.271l-1.021 1.021q-.187.188-.187.458 0 .271.187.459.188.187.458.187.271 0 .459-.187Zm-6.937-.729-.104-.104q-.209-.208-.48-.208-.27 0-.458.208-.187.187-.187.458t.187.459l1.021 1.02q.271.271.625.271t.625-.271l1.021-1.02q.187-.188.187-.459t-.187-.458q-.188-.187-.458-.187-.271 0-.459.187l-.041.042q.124-1.063.937-1.75.813-.688 1.875-.688.167 0 .323.021t.302.062q.187.063.375.032.188-.032.312-.156.271-.271.209-.625-.063-.355-.417-.459-.292-.083-.573-.125-.281-.041-.573-.041-1.625 0-2.791 1.093Q6 8.875 5.896 10.479ZM3.417 17.5q-.729 0-1.24-.51-.51-.511-.51-1.24V5.896q0-.729.51-1.24.511-.51 1.24-.51h2.541l1-1.084q.25-.27.584-.416.333-.146.708-.146h3.521q.354 0 .687.146.334.146.584.416l1.02 1.084h2.521q.729 0 1.24.51.51.511.51 1.24v9.854q0 .729-.51 1.24-.511.51-1.24.51Zm13.166-1.75V5.896H3.417v9.854ZM10 10.812Z"/></svg>

<svg xmlns="http://www.w3.org/2000/svg" height="20" width="20"><path d="M12.833 11.208Q12.688 12.271 11.885 12.969Q11.083 13.667 10 13.667Q9.854 13.667 9.698 13.646Q9.542 13.625 9.375 13.583Q9.188 13.521 9 13.552Q8.812 13.583 8.688 13.708Q8.417 13.979 8.479 14.333Q8.542 14.688 8.896 14.792Q9.188 14.875 9.469 14.917Q9.75 14.958 10.042 14.958Q11.667 14.958 12.833 13.865Q14 12.771 14.104 11.167L14.229 11.292Q14.417 11.479 14.688 11.469Q14.958 11.458 15.146 11.271Q15.333 11.083 15.333 10.812Q15.333 10.542 15.146 10.354L14.125 9.333Q13.854 9.062 13.5 9.062Q13.146 9.062 12.875 9.333L11.854 10.354Q11.667 10.542 11.667 10.812Q11.667 11.083 11.854 11.271Q12.042 11.458 12.312 11.458Q12.583 11.458 12.771 11.271ZM5.896 10.479 5.792 10.375Q5.583 10.167 5.312 10.167Q5.042 10.167 4.854 10.375Q4.667 10.562 4.667 10.833Q4.667 11.104 4.854 11.292L5.875 12.312Q6.146 12.583 6.5 12.583Q6.854 12.583 7.125 12.312L8.146 11.292Q8.333 11.104 8.333 10.833Q8.333 10.562 8.146 10.375Q7.958 10.188 7.688 10.188Q7.417 10.188 7.229 10.375L7.188 10.417Q7.312 9.354 8.125 8.667Q8.938 7.979 10 7.979Q10.167 7.979 10.323 8Q10.479 8.021 10.625 8.062Q10.812 8.125 11 8.094Q11.188 8.062 11.312 7.938Q11.583 7.667 11.521 7.313Q11.458 6.958 11.104 6.854Q10.812 6.771 10.531 6.729Q10.25 6.688 9.958 6.688Q8.333 6.688 7.167 7.781Q6 8.875 5.896 10.479ZM3.417 17.5Q2.688 17.5 2.177 16.99Q1.667 16.479 1.667 15.75V5.896Q1.667 5.167 2.177 4.656Q2.688 4.146 3.417 4.146H5.958L6.958 3.062Q7.208 2.792 7.542 2.646Q7.875 2.5 8.25 2.5H11.771Q12.125 2.5 12.458 2.646Q12.792 2.792 13.042 3.062L14.062 4.146H16.583Q17.312 4.146 17.823 4.656Q18.333 5.167 18.333 5.896V15.75Q18.333 16.479 17.823 16.99Q17.312 17.5 16.583 17.5ZM16.583 15.75Q16.583 15.75 16.583 15.75Q16.583 15.75 16.583 15.75V5.896Q16.583 5.896 16.583 5.896Q16.583 5.896 16.583 5.896H3.417Q3.417 5.896 3.417 5.896Q3.417 5.896 3.417 5.896V15.75Q3.417 15.75 3.417 15.75Q3.417 15.75 3.417 15.75ZM10 10.812Q10 10.812 10 10.812Q10 10.812 10 10.812Q10 10.812 10 10.812Q10 10.812 10 10.812Q10 10.812 10 10.812Q10 10.812 10 10.812Q10 10.812 10 10.812Q10 10.812 10 10.812Z"/></svg>
